Numix-Circle/48x48/apps/matlab.svg

<?xml version="1.0" encoding="UTF-8" standalone="no"?>
<svg
   xmlns:dc="http://purl.org/dc/elements/1.1/"
   xmlns:cc="http://creativecommons.org/ns#"
   xmlns:rdf="http://www.w3.org/1999/02/22-rdf-syntax-ns#"
   xmlns:svg="http://www.w3.org/2000/svg"
   xmlns="http://www.w3.org/2000/svg"
   xmlns:xlink="http://www.w3.org/1999/xlink"
   xmlns:sodipodi="http://sodipodi.sourceforge.net/DTD/sodipodi-0.dtd"
   xmlns:inkscape="http://www.inkscape.org/namespaces/inkscape"
   viewBox="0 0 48 48"
   id="svg2"
   version="1.1"
   inkscape:version="0.91 r13725"
   sodipodi:docname="matlab.svg">
  <metadata
     id="metadata59">
    <rdf:RDF>
      <cc:Work
         rdf:about="">
        <dc:format>image/svg+xml</dc:format>
        <dc:type
           rdf:resource="http://purl.org/dc/dcmitype/StillImage" />
      </cc:Work>
    </rdf:RDF>
  </metadata>
  <sodipodi:namedview
     pagecolor="#ffffff"
     bordercolor="#666666"
     borderopacity="1"
     objecttolerance="10"
     gridtolerance="10"
     guidetolerance="10"
     inkscape:pageopacity="0"
     inkscape:pageshadow="2"
     inkscape:window-width="1260"
     inkscape:window-height="962"
     id="namedview57"
     showgrid="false"
     showguides="false"
     inkscape:zoom="9.8333333"
     inkscape:cx="20.870613"
     inkscape:cy="18.693084"
     inkscape:window-x="10"
     inkscape:window-y="52"
     inkscape:window-maximized="0"
     inkscape:current-layer="svg2" />
  <defs
     id="defs4">
    <linearGradient
       inkscape:collect="always"
       id="linearGradient4319">
      <stop
         style="stop-color:#3b4c50;stop-opacity:1;"
         offset="0"
         id="stop4321" />
      <stop
         style="stop-color:#44575c;stop-opacity:1"
         offset="1"
         id="stop4323" />
    </linearGradient>
    
    <linearGradient
       inkscape:collect="always"
       xlink:href="#linearGradient4319"
       id="linearGradient4325"
       x1="1"
       y1="24"
       x2="47"
       y2="24"
       gradientUnits="userSpaceOnUse"
       gradientTransform="matrix(0,-1,1,0,0,48)" />
  </defs>
  <g
     id="g21">
    <path
       d="m 36.31 5 c 5.859 4.062 9.688 10.831 9.688 18.5 c 0 12.426 -10.07 22.5 -22.5 22.5 c -7.669 0 -14.438 -3.828 -18.5 -9.688 c 1.037 1.822 2.306 3.499 3.781 4.969 c 4.085 3.712 9.514 5.969 15.469 5.969 c 12.703 0 23 -10.298 23 -23 c 0 -5.954 -2.256 -11.384 -5.969 -15.469 c -1.469 -1.475 -3.147 -2.744 -4.969 -3.781 z m 4.969 3.781 c 3.854 4.113 6.219 9.637 6.219 15.719 c 0 12.703 -10.297 23 -23 23 c -6.081 0 -11.606 -2.364 -15.719 -6.219 c 4.16 4.144 9.883 6.719 16.219 6.719 c 12.703 0 23 -10.298 23 -23 c 0 -6.335 -2.575 -12.06 -6.719 -16.219 z"
       style="opacity:0.05"
       id="path23" />
    <path
       d="m 41.28 8.781 c 3.712 4.085 5.969 9.514 5.969 15.469 c 0 12.703 -10.297 23 -23 23 c -5.954 0 -11.384 -2.256 -15.469 -5.969 c 4.113 3.854 9.637 6.219 15.719 6.219 c 12.703 0 23 -10.298 23 -23 c 0 -6.081 -2.364 -11.606 -6.219 -15.719 z"
       style="opacity:0.1"
       id="path25" />
    <path
       d="m 31.25 2.375 c 8.615 3.154 14.75 11.417 14.75 21.13 c 0 12.426 -10.07 22.5 -22.5 22.5 c -9.708 0 -17.971 -6.135 -21.12 -14.75 a 23 23 0 0 0 44.875 -7 a 23 23 0 0 0 -16 -21.875 z"
       style="opacity:0.2"
       id="path27" />
  </g>
  <path
     inkscape:connector-curvature="0"
     id="path31"
     style="fill:url(#linearGradient4325);fill-opacity:1"
     d="M 47,24 C 47,36.703 36.703,47 24,47 11.297,47 1,36.703 1,24 1,11.297 11.297,1 24,1 36.703,1 47,11.297 47,24 Z" />
  <g
     id="g33">
    <g
       id="g35"
       clip-path="url(#clipPath-525887304)"
       style="clip-path:url(#clipPath-525887304)">
      <g
         transform="translate(1,1)"
         id="g37">
        <g
           style="opacity:0.1"
           id="g39">
          <!-- color: #d8466e -->
          <g
             id="g41">
            <path
               d="m 29.23 12.06 c -0.426 0.34 -1.68 2.719 -2.934 5.555 c -0.508 1.156 -1.227 2.668 -1.59 3.363 c -1.078 2.059 -3.711 5.805 -4.93 7 l -1.137 1.125 l 0.848 0.926 c 0.52 0.57 1.207 1.754 1.777 3.078 c 1.082 2.523 1.27 2.887 1.477 2.887 c 0.098 0 0.652 -0.313 1.27 -0.707 c 1.379 -0.895 2.668 -2.098 4.422 -4.145 c 2.738 -3.191 4.793 -3.867 7.324 -2.402 c 0.684 0.398 1.246 0.648 1.246 0.555 c 0 -0.098 -0.348 -1.059 -0.766 -2.141 c -0.418 -1.082 -1.559 -4.137 -2.527 -6.789 c -0.691 -1.164 -2.949 -9.117 -4.48 -8.297 m -5.457 6.527 c -0.012 0 -0.027 0 -0.043 0.008 c -2.316 1.039 -3.152 1.512 -3.836 2.172 c -0.449 0.441 -0.816 0.91 -0.816 1.047 c 0 0.426 1.824 1.563 2.125 1.324 c 0.145 -0.117 0.715 -0.953 1.266 -1.863 c 0.973 -1.621 1.477 -2.664 1.305 -2.688 m -6.484 4.59 c -0.395 0 -5.992 2.168 -6.258 2.426 c -0.078 0.074 0.004 0.211 0.184 0.313 c 0.18 0.105 1.203 0.805 2.289 1.559 c 1.082 0.754 2.023 1.367 2.09 1.371 c 0.066 0 0.563 -0.266 1.094 -0.594 c 1.117 -0.688 3.273 -2.816 3.262 -3.223 c -0.008 -0.363 -2.156 -1.855 -2.664 -1.855 m 0.004 0.004"
               style="fill:#000;fill-opacity:1;stroke:none;fill-rule:nonzero"
               id="path43" />
          </g>
        </g>
      </g>
    </g>
  </g>
  <path
     style="fill:#f67e17;fill-opacity:1;fill-rule:nonzero;stroke:none"
     d="M 29.525391 12.013672 C 29.424583 12.000182 29.326156 12.017109 29.230469 12.068359 L 29.230469 12.060547 C 28.804469 12.400547 27.550875 14.779234 26.296875 17.615234 C 25.788875 18.771234 25.068078 20.283516 24.705078 20.978516 C 23.627078 23.037516 20.994391 26.783516 19.775391 27.978516 L 18.638672 29.103516 L 19.486328 30.029297 C 20.006328 30.599297 20.693672 31.783422 21.263672 33.107422 C 22.345672 35.630422 22.533234 35.994141 22.740234 35.994141 C 22.838234 35.994141 23.393719 35.681109 24.011719 35.287109 C 25.390719 34.392109 26.679594 33.189578 28.433594 31.142578 C 31.171594 27.951578 33.226813 27.275234 35.757812 28.740234 C 36.441812 29.138234 37.003906 29.387922 37.003906 29.294922 C 37.003906 29.196922 36.654328 28.236297 36.236328 27.154297 C 35.818328 26.072297 34.678938 23.017234 33.710938 20.365234 C 33.063125 19.273984 31.037498 12.216018 29.525391 12.013672 z "
     id="path3434" />
  <path
     style="fill:#62cbcb;fill-opacity:1;fill-rule:nonzero;stroke:none"
     d="M 23.773438 18.595703 C 23.761437 18.595703 23.746469 18.595516 23.730469 18.603516 C 21.414469 19.642516 20.578531 20.115391 19.894531 20.775391 C 19.445531 21.216391 19.078125 21.685266 19.078125 21.822266 C 19.078125 22.248266 20.902125 23.385484 21.203125 23.146484 C 21.348125 23.029484 21.91775 22.193203 22.46875 21.283203 C 23.44175 19.662203 23.945438 18.619703 23.773438 18.595703 z M 17.287109 23.181641 L 17.289062 23.185547 C 16.894063 23.185547 11.29725 25.353328 11.03125 25.611328 C 10.95325 25.685328 11.036797 25.821828 11.216797 25.923828 C 11.396797 26.028828 12.419859 26.728422 13.505859 27.482422 C 14.587859 28.236422 15.528703 28.849516 15.595703 28.853516 C 15.661703 28.853516 16.158453 28.587766 16.689453 28.259766 C 17.806453 27.571766 19.962172 25.444109 19.951172 25.037109 C 19.943172 24.674109 17.795109 23.181641 17.287109 23.181641 z "
     id="path51" />
  <g
     id="g53">
    <path
       d="m 40.03 7.531 c 3.712 4.084 5.969 9.514 5.969 15.469 0 12.703 -10.297 23 -23 23 c -5.954 0 -11.384 -2.256 -15.469 -5.969 4.178 4.291 10.01 6.969 16.469 6.969 c 12.703 0 23 -10.298 23 -23 0 -6.462 -2.677 -12.291 -6.969 -16.469 z"
       style="opacity:0.1"
       id="path55" />
  </g>
</svg>

<svg xmlns="http://www.w3.org/2000/svg" viewBox="0 0 48 48">
 <defs>
  <linearGradient id="linearGradient4325" x1="1" x2="47" gradientUnits="userSpaceOnUse" gradientTransform="matrix(0,-1,1,0,0,48)">
   <stop style="stop-color:#3b4c50;stop-opacity:1"/>
   <stop offset="1" style="stop-color:#44575c;stop-opacity:1"/>
  </linearGradient>
 </defs>
 <g>
  <path d="m 36.31 5 c 5.859 4.062 9.688 10.831 9.688 18.5 c 0 12.426 -10.07 22.5 -22.5 22.5 c -7.669 0 -14.438 -3.828 -18.5 -9.688 c 1.037 1.822 2.306 3.499 3.781 4.969 c 4.085 3.712 9.514 5.969 15.469 5.969 c 12.703 0 23 -10.298 23 -23 c 0 -5.954 -2.256 -11.384 -5.969 -15.469 c -1.469 -1.475 -3.147 -2.744 -4.969 -3.781 z m 4.969 3.781 c 3.854 4.113 6.219 9.637 6.219 15.719 c 0 12.703 -10.297 23 -23 23 c -6.081 0 -11.606 -2.364 -15.719 -6.219 c 4.16 4.144 9.883 6.719 16.219 6.719 c 12.703 0 23 -10.298 23 -23 c 0 -6.335 -2.575 -12.06 -6.719 -16.219 z" style="opacity:0.05"/>
  <path d="m 41.28 8.781 c 3.712 4.085 5.969 9.514 5.969 15.469 c 0 12.703 -10.297 23 -23 23 c -5.954 0 -11.384 -2.256 -15.469 -5.969 c 4.113 3.854 9.637 6.219 15.719 6.219 c 12.703 0 23 -10.298 23 -23 c 0 -6.081 -2.364 -11.606 -6.219 -15.719 z" style="opacity:0.1"/>
  <path d="m 31.25 2.375 c 8.615 3.154 14.75 11.417 14.75 21.13 c 0 12.426 -10.07 22.5 -22.5 22.5 c -9.708 0 -17.971 -6.135 -21.12 -14.75 a 23 23 0 0 0 44.875 -7 a 23 23 0 0 0 -16 -21.875 z" style="opacity:0.2"/>
 </g>
 <path d="M 47,24 C 47,36.703 36.703,47 24,47 11.297,47 1,36.703 1,24 1,11.297 11.297,1 24,1 36.703,1 47,11.297 47,24 Z" style="fill:url(#linearGradient4325);fill-opacity:1"/>
 <g>
  <g>
   <g transform="translate(1,1)">
    <g style="opacity:0.1">
     <!-- color: #d8466e -->
     <g>
      <path d="m 29.23 12.06 c -0.426 0.34 -1.68 2.719 -2.934 5.555 c -0.508 1.156 -1.227 2.668 -1.59 3.363 c -1.078 2.059 -3.711 5.805 -4.93 7 l -1.137 1.125 l 0.848 0.926 c 0.52 0.57 1.207 1.754 1.777 3.078 c 1.082 2.523 1.27 2.887 1.477 2.887 c 0.098 0 0.652 -0.313 1.27 -0.707 c 1.379 -0.895 2.668 -2.098 4.422 -4.145 c 2.738 -3.191 4.793 -3.867 7.324 -2.402 c 0.684 0.398 1.246 0.648 1.246 0.555 c 0 -0.098 -0.348 -1.059 -0.766 -2.141 c -0.418 -1.082 -1.559 -4.137 -2.527 -6.789 c -0.691 -1.164 -2.949 -9.117 -4.48 -8.297 m -5.457 6.527 c -0.012 0 -0.027 0 -0.043 0.008 c -2.316 1.039 -3.152 1.512 -3.836 2.172 c -0.449 0.441 -0.816 0.91 -0.816 1.047 c 0 0.426 1.824 1.563 2.125 1.324 c 0.145 -0.117 0.715 -0.953 1.266 -1.863 c 0.973 -1.621 1.477 -2.664 1.305 -2.688 m -6.484 4.59 c -0.395 0 -5.992 2.168 -6.258 2.426 c -0.078 0.074 0.004 0.211 0.184 0.313 c 0.18 0.105 1.203 0.805 2.289 1.559 c 1.082 0.754 2.023 1.367 2.09 1.371 c 0.066 0 0.563 -0.266 1.094 -0.594 c 1.117 -0.688 3.273 -2.816 3.262 -3.223 c -0.008 -0.363 -2.156 -1.855 -2.664 -1.855 m 0.004 0.004" style="fill:#000;fill-opacity:1;stroke:none;fill-rule:nonzero"/>
     </g>
    </g>
   </g>
  </g>
 </g>
 <path d="m 29.525 12.01 c -0.101 -0.013 -0.199 0.003 -0.295 0.055 l 0 -0.008 c -0.426 0.34 -1.68 2.719 -2.934 5.555 c -0.508 1.156 -1.229 2.668 -1.592 3.363 c -1.078 2.059 -3.711 5.805 -4.93 7 l -1.137 1.125 l 0.848 0.926 c 0.52 0.57 1.207 1.754 1.777 3.078 c 1.082 2.523 1.27 2.887 1.477 2.887 c 0.098 0 0.653 -0.313 1.271 -0.707 c 1.379 -0.895 2.668 -2.098 4.422 -4.145 c 2.738 -3.191 4.793 -3.867 7.324 -2.402 c 0.684 0.398 1.246 0.648 1.246 0.555 c 0 -0.098 -0.35 -1.059 -0.768 -2.141 c -0.418 -1.082 -1.557 -4.137 -2.525 -6.789 c -0.648 -1.091 -2.673 -8.149 -4.186 -8.352 z" style="fill:#f67e17;fill-opacity:1;stroke:none;fill-rule:nonzero"/>
 <path d="m 23.773 18.596 c -0.012 0 -0.027 0 -0.043 0.008 c -2.316 1.039 -3.152 1.512 -3.836 2.172 c -0.449 0.441 -0.816 0.91 -0.816 1.047 c 0 0.426 1.824 1.563 2.125 1.324 c 0.145 -0.117 0.715 -0.953 1.266 -1.863 c 0.973 -1.621 1.477 -2.663 1.305 -2.688 z m -6.486 4.586 l 0.002 0.004 c -0.395 0 -5.992 2.168 -6.258 2.426 c -0.078 0.074 0.006 0.21 0.186 0.313 c 0.18 0.105 1.203 0.805 2.289 1.559 c 1.082 0.754 2.023 1.367 2.09 1.371 c 0.066 0 0.563 -0.266 1.094 -0.594 c 1.117 -0.688 3.273 -2.816 3.262 -3.223 c -0.008 -0.363 -2.156 -1.855 -2.664 -1.855 z" style="fill:#62cbcb;fill-opacity:1;stroke:none;fill-rule:nonzero"/>
 <g>
  <path d="m 40.03 7.531 c 3.712 4.084 5.969 9.514 5.969 15.469 0 12.703 -10.297 23 -23 23 c -5.954 0 -11.384 -2.256 -15.469 -5.969 4.178 4.291 10.01 6.969 16.469 6.969 c 12.703 0 23 -10.298 23 -23 0 -6.462 -2.677 -12.291 -6.969 -16.469 z" style="opacity:0.1"/>
 </g>
</svg>
